packages/icons/src/circle-person.svg

<svg width="24" height="24" viewBox="0 0 24 24" fill="none" xmlns="http://www.w3.org/2000/svg">
<path fill-rule="evenodd" clip-rule="evenodd" d="M12 2C17.5228 2 22 6.47715 22 12C22 17.5228 17.5228 22 12 22C6.47715 22 2 17.5228 2 12C2 6.47715 6.47715 2 12 2ZM12.272 15.0061L12 15C9.798 15 7.81778 16.197 6.77074 18.0548C8.17353 19.2669 10.0012 20 12 20C13.9984 20 15.8256 19.2673 17.2277 18.0558C16.2242 16.2722 14.3627 15.1001 12.272 15.0061ZM12 4C7.58172 4 4 7.58172 4 12C4 13.6686 4.51084 15.2179 5.38465 16.5C6.26851 15.2005 7.51492 14.1926 8.95991 13.5989C8.3615 12.9006 8 11.9925 8 11C8 8.79086 9.79086 7 12 7C14.2091 7 16 8.79086 16 11C16 11.9925 15.6385 12.9006 15.04 13.5998C16.4845 14.1923 17.7312 15.2 18.6158 16.4996C19.4889 15.2187 20 13.669 20 12C20 7.58172 16.4183 4 12 4ZM11.984 13L12.0172 12.9999C13.1138 12.9907 14 12.0988 14 11C14 9.89543 13.1046 9 12 9C10.8954 9 10 9.89543 10 11C10 12.0544 10.8159 12.9182 11.8507 12.9945L11.984 13Z" fill="black"/>
</svg>

<svg xmlns="http://www.w3.org/2000/svg" width="24" height="24" fill="none" viewBox="0 0 24 24">
  <path fill="#000" fill-rule="evenodd" d="M12 2c5.523 0 10 4.477 10 10s-4.477 10-10 10S2 17.523 2 12 6.477 2 12 2Zm.272 13.006L12 15a6 6 0 0 0-5.23 3.055A7.97 7.97 0 0 0 12 20a7.969 7.969 0 0 0 5.228-1.944 5.995 5.995 0 0 0-4.956-3.05ZM12 4a8 8 0 0 0-6.615 12.5 8.006 8.006 0 0 1 3.575-2.901 4 4 0 1 1 6.08 0 8.003 8.003 0 0 1 3.576 2.9A8 8 0 0 0 12 4Zm-.016 9h.033a2 2 0 1 0-.166-.005l.133.005Z" clip-rule="evenodd"/>
</svg>
